client/resources/iconsets/breeze/src/svg/16x16/icon_showfrom.svg

<svg xmlns="http://www.w3.org/2000/svg" width="16" height="16" viewBox="0 0 16 16">
 <path style="fill:#6d6d70"
       d="M 0 0 L 0 2 C 0.55228 2 1 2.44772 1 3 C 1 3.55228 0.55228 4 0 4 L 0 5 C 0.55229 5 1 5.44772 1 6 C 1 6.55228 0.55229 7 0 7 L 0 9 C 0.55228 9 1 9.4477204 1 10 C 1 10.55228 0.55228 11 0 11 L 0 12 C 0.55228 12 1 12.44772 1 13 C 1 13.55228 0.55228 14 0 14 L 0 16 L 2 16 C 2 15.44772 2.44772 15 3 15 C 3.55228 15 4 15.44772 4 16 L 5 16 C 5 15.44772 5.44772 15 6 15 C 6.55228 15 7 15.44772 7 16 L 9 16 C 9 15.44772 9.4477196 15 10 15 C 10.55229 15 11 15.44772 11 16 L 12 16 C 12 15.44772 12.44771 15 13 15 C 13.55229 15 14 15.44772 14 16 L 16 16 L 16 14 C 15.44771 14 15 13.55228 15 13 C 15 12.44772 15.44771 12 16 12 L 16 11 C 15.44771 11 15 10.55228 15 10 C 15 9.4477204 15.44771 9 16 9 L 16 7 C 15.44771 7 15 6.55228 15 6 C 15 5.44772 15.44771 5 16 5 L 16 4 C 15.44771 4 15 3.55228 15 3 C 15 2.44772 15.44771 2 16 2 L 16 0 L 14 0 C 14 0.55228 13.55229 1 13 1 C 12.44771 1 12 0.55228 12 0 L 11 0 C 11 0.55228 10.55229 1 10 1 C 9.4477196 1 9 0.55228 9 0 L 7 0 C 7 0.55228 6.55228 1 6 1 C 5.44772 1 5 0.55228 5 0 L 4 0 C 4 0.55228 3.55228 1 3 1 C 2.44772 1 2 0.55228 2 0 L 0 0 z M 2 2 L 14 2 L 14 14 L 2 14 L 2 2 z M 8 3 A 2 2 0 0 0 6 5 A 2 2 0 0 0 8 7 A 2 2 0 0 0 10 5 A 2 2 0 0 0 8 3 z M 8 7 C 5.7908611 7 4 8.9182217 4 11.285156 C 4 12.23193 5.7908607 13 8 13 C 10.209139 13 12 12.23193 12 11.285156 C 12 8.9182217 10.209139 7 8 7 z "
       />
</svg>

<svg xmlns="http://www.w3.org/2000/svg" width="16" height="16"><path d="M0 0v2a1 1 0 1 1 0 2v1a1 1 0 1 1 0 2v2a1 1 0 0 1 1 1 1 1 0 0 1-1 1v1a1 1 0 1 1 0 2v2h2a1 1 0 1 1 2 0h1a1 1 0 1 1 2 0h2a1 1 0 1 1 2 0h1a1 1 0 1 1 2 0h2v-2a1 1 0 1 1 0-2v-1a1 1 0 1 1 0-2V7a1 1 0 1 1 0-2V4a1 1 0 1 1 0-2V0h-2a1 1 0 1 1-2 0h-1a1 1 0 0 1-1 1 1 1 0 0 1-1-1H7a1 1 0 1 1-2 0H4a1 1 0 1 1-2 0H0zm2 2h12v12H2V2zm6 1a2 2 0 1 0 0 4 2 2 0 1 0 0-4zm0 4c-2.209 0-4 1.918-4 4.285C4 12.232 5.791 13 8 13s4-.768 4-1.715C12 8.918 10.209 7 8 7z" fill="#6d6d70"/></svg>
